dist/svg/pet-line.svg

<svg xmlns="http://www.w3.org/2000/svg" viewBox="0 0 24 24"><path d="M8.701 4.285c-.334.048-.639.213-.932.502a1.65 1.65 0 0 0-.491 1.483c.069.401.204.66.498.954s.553.429.954.498c.326.056.699.004 1.023-.143.279-.127.699-.547.826-.826.295-.651.189-1.388-.275-1.902-.417-.46-.975-.658-1.603-.566m6 0c-.334.048-.639.213-.932.502a1.65 1.65 0 0 0-.491 1.483c.069.401.204.66.498.954s.553.429.954.498c.326.056.699.004 1.023-.143.279-.127.699-.547.826-.826.295-.651.189-1.388-.275-1.902-.417-.46-.975-.658-1.603-.566M9.167 5.826c.091.083.094.244.007.341-.138.152-.414.045-.414-.16 0-.214.248-.324.407-.181m6 0c.091.083.094.244.007.341-.138.152-.414.045-.414-.16 0-.214.248-.324.407-.181M5.701 8.285c-.334.048-.639.213-.932.502a1.65 1.65 0 0 0-.491 1.483c.069.401.204.66.498.954s.553.429.954.498c.326.056.699.004 1.023-.143.279-.127.699-.547.826-.826.295-.651.189-1.388-.275-1.902-.417-.46-.975-.658-1.603-.566m5.885-.001c-1.004.083-1.833.474-2.293 1.084-.364.482-.533.938-.775 2.092-.194.926-.318 1.305-.537 1.64-.199.303-.812.918-1.467 1.471-1.043.88-1.391 1.632-1.221 2.641.279 1.645 1.365 2.407 3.107 2.176.253-.034.892-.162 1.42-.284 2.234-.517 2.389-.516 4.84.051.979.227 1.221.262 1.78.262.564 0 .863-.062 1.276-.263.494-.241.905-.769 1.117-1.434.236-.741.219-1.317-.057-1.916-.194-.421-.501-.778-1.128-1.311-.747-.634-.979-.861-1.248-1.219-.308-.411-.446-.763-.617-1.574-.201-.953-.246-1.128-.387-1.519-.346-.955-1.047-1.559-2.089-1.801-.232-.054-1.111-.147-1.267-.134zm6.115.001c-.334.048-.639.213-.932.502a1.65 1.65 0 0 0-.491 1.483c.069.401.204.66.498.954s.553.429.954.498c.326.056.699.004 1.023-.143.279-.127.699-.547.826-.826.295-.651.189-1.388-.275-1.902-.417-.46-.975-.658-1.603-.566M6.167 9.826c.091.083.094.244.007.341-.138.152-.414.045-.414-.16 0-.214.248-.324.407-.181m6.689-.008c.682.13.971.376 1.177 1.002.044.132.154.597.245 1.032.372 1.78.719 2.343 2.242 3.651.893.766.98.892.951 1.382a1.25 1.25 0 0 1-.146.57c-.178.362-.308.437-.79.458-.446.02-.605-.006-2.035-.332-1.452-.332-1.636-.359-2.4-.355-.737.004-1.116.062-2.458.378-.474.112-1.006.229-1.182.26-.389.068-.896.073-1.107.009-.408-.122-.697-.837-.551-1.364q.08-.289 1.016-1.088c.265-.226.627-.562.805-.746.794-.823 1.041-1.351 1.378-2.95.178-.844.257-1.091.437-1.375q.264-.416 1.042-.55c.308-.052 1.059-.043 1.376.018m5.311.008c.091.083.094.244.007.341-.138.152-.414.045-.414-.16 0-.214.248-.324.407-.181" fill-rule="evenodd"/></svg>

<svg fill="none" xmlns="http://www.w3.org/2000/svg" viewBox="0 0 24 24"><path d="M8.701 4.285 C 8.367 4.333,8.062 4.498,7.769 4.787 C 7.359 5.192,7.184 5.720,7.278 6.270 C 7.347 6.671,7.482 6.930,7.776 7.224 C 8.070 7.518,8.329 7.653,8.730 7.722 C 9.056 7.778,9.429 7.726,9.753 7.579 C 10.032 7.452,10.452 7.032,10.579 6.753 C 10.874 6.102,10.768 5.365,10.304 4.851 C 9.887 4.391,9.329 4.193,8.701 4.285 M14.701 4.285 C 14.367 4.333,14.062 4.498,13.769 4.787 C 13.359 5.192,13.184 5.720,13.278 6.270 C 13.347 6.671,13.482 6.930,13.776 7.224 C 14.070 7.518,14.329 7.653,14.730 7.722 C 15.056 7.778,15.429 7.726,15.753 7.579 C 16.032 7.452,16.452 7.032,16.579 6.753 C 16.874 6.102,16.768 5.365,16.304 4.851 C 15.887 4.391,15.329 4.193,14.701 4.285 M9.167 5.826 C 9.258 5.909,9.261 6.070,9.174 6.167 C 9.036 6.319,8.760 6.212,8.760 6.007 C 8.760 5.793,9.008 5.683,9.167 5.826 M15.167 5.826 C 15.258 5.909,15.261 6.070,15.174 6.167 C 15.036 6.319,14.760 6.212,14.760 6.007 C 14.760 5.793,15.008 5.683,15.167 5.826 M5.701 8.285 C 5.367 8.333,5.062 8.498,4.769 8.787 C 4.359 9.192,4.184 9.720,4.278 10.270 C 4.347 10.671,4.482 10.930,4.776 11.224 C 5.070 11.518,5.329 11.653,5.730 11.722 C 6.056 11.778,6.429 11.726,6.753 11.579 C 7.032 11.452,7.452 11.032,7.579 10.753 C 7.874 10.102,7.768 9.365,7.304 8.851 C 6.887 8.391,6.329 8.193,5.701 8.285 M11.586 8.284 C 10.582 8.367,9.753 8.758,9.293 9.368 C 8.929 9.850,8.760 10.306,8.518 11.460 C 8.324 12.386,8.200 12.765,7.981 13.100 C 7.782 13.403,7.169 14.018,6.514 14.571 C 5.471 15.451,5.123 16.203,5.293 17.212 C 5.572 18.857,6.658 19.619,8.400 19.388 C 8.653 19.354,9.292 19.226,9.820 19.104 C 12.054 18.587,12.209 18.588,14.660 19.155 C 15.639 19.382,15.881 19.417,16.440 19.417 C 17.004 19.417,17.303 19.355,17.716 19.154 C 18.210 18.913,18.621 18.385,18.833 17.720 C 19.069 16.979,19.052 16.403,18.776 15.804 C 18.582 15.383,18.275 15.026,17.648 14.493 C 16.901 13.859,16.669 13.632,16.400 13.274 C 16.092 12.863,15.954 12.511,15.783 11.700 C 15.582 10.747,15.537 10.572,15.396 10.181 C 15.050 9.226,14.349 8.622,13.307 8.380 C 13.075 8.326,12.196 8.233,12.040 8.246 C 12.007 8.249,11.803 8.266,11.586 8.284 M17.701 8.285 C 17.367 8.333,17.062 8.498,16.769 8.787 C 16.359 9.192,16.184 9.720,16.278 10.270 C 16.347 10.671,16.482 10.930,16.776 11.224 C 17.070 11.518,17.329 11.653,17.730 11.722 C 18.056 11.778,18.429 11.726,18.753 11.579 C 19.032 11.452,19.452 11.032,19.579 10.753 C 19.874 10.102,19.768 9.365,19.304 8.851 C 18.887 8.391,18.329 8.193,17.701 8.285 M6.167 9.826 C 6.258 9.909,6.261 10.070,6.174 10.167 C 6.036 10.319,5.760 10.212,5.760 10.007 C 5.760 9.793,6.008 9.683,6.167 9.826 M12.856 9.818 C 13.538 9.948,13.827 10.194,14.033 10.820 C 14.077 10.952,14.187 11.417,14.278 11.852 C 14.650 13.632,14.997 14.195,16.520 15.503 C 17.413 16.269,17.500 16.395,17.471 16.885 C 17.457 17.129,17.426 17.250,17.325 17.455 C 17.147 17.817,17.017 17.892,16.535 17.913 C 16.089 17.933,15.930 17.907,14.500 17.581 C 13.048 17.249,12.864 17.222,12.100 17.226 C 11.363 17.230,10.984 17.288,9.642 17.604 C 9.168 17.716,8.636 17.833,8.460 17.864 C 8.071 17.932,7.564 17.937,7.353 17.873 C 6.945 17.751,6.656 17.036,6.802 16.509 C 6.856 16.316,7.194 15.954,7.818 15.421 C 8.083 15.195,8.445 14.859,8.623 14.675 C 9.417 13.852,9.664 13.324,10.001 11.725 C 10.179 10.881,10.258 10.634,10.438 10.350 C 10.614 10.073,10.962 9.889,11.480 9.800 C 11.788 9.748,12.539 9.757,12.856 9.818 M18.167 9.826 C 18.258 9.909,18.261 10.070,18.174 10.167 C 18.036 10.319,17.760 10.212,17.760 10.007 C 17.760 9.793,18.008 9.683,18.167 9.826 " stroke="none" fill-rule="evenodd" fill="currentColor"/></svg>
